!!!!SEGMENT: pl-sa--l-1643--093_anonim--koleda-wdzieczna.krn
!!!cenid: 16xx:1451
!!!COM: Anonim
!!!COM-rismID: pe30004985
!!!CDT:
!!!CNT:
!!!OTL: Kolęda wdzięczna
!!!PDT:
!!!AGN: Sacred
!!!SMS-siglum: PL-SA
!!!SMS-shelfmark: L 1643
!!!SMS-shelfwork: 093 W
!!!SMS-variant:
!!!SMS-altvar:
!!!NIFC-rismSourceID: 1001064377
!!!NIFC-islandoraID:
!!!URL-pdf-islandora:
!!!URL-scan:
!!!ONB-nifc: UWAGA: 8 ksiąg. Primi chori: 1mus Cantus (strona 166-167, księga 1 skan 0096), C 2dus (strona 168-169, księga 2 skan 0091), C 3tius (strona 164-165, księga 3 skan 0072), Bassus (strona 164-165, księga 4 skan 0084); Secondi chori: Primus Cantus (strona 169-170, księga 5 skan 0063), C 2dus (strona 170-171, księga 6 skan 0076), Altus (strona 168-169, księga 7 skan 0082), Bassus (strona 165-166, księga 8 skan 0082). UWAGA: Nie dodawać pustych linii, chyba że w rękopisie pojawiają się dodatkowe oznaczenia dotyczące pełnej obsady (a 4, a 8 itp.)
!!!AIN: 8 empty
!!!key:
**kern	**text	**text	**text	**text	**text	**text	**text	**kern	**text	**text	**text	**text	**text	**text	**text	**kern	**text	**text	**text	**text	**text	**text	**text	**kern	**text	**text	**text	**text	**text	**text	**text	**kern	**text	**text	**text	**text	**text	**text	**text	**kern	**text	**text	**text	**text	**text	**text	**text	**kern	**text	**text	**text	**text	**text	**text	**text	**kern	**text	**text	**text	**text	**text	**text	**text
*part8	*part8	*part8	*part8	*part8	*part8	*part8	*part8	*part7	*part7	*part7	*part7	*part7	*part7	*part7	*part7	*part6	*part6	*part6	*part6	*part6	*part6	*part6	*part6	*part5	*part5	*part5	*part5	*part5	*part5	*part5	*part5	*part4	*part4	*part4	*part4	*part4	*part4	*part4	*part4	*part3	*part3	*part3	*part3	*part3	*part3	*part3	*part3	*part2	*part2	*part2	*part2	*part2	*part2	*part2	*part2	*part1	*part1	*part1	*part1	*part1	*part1	*part1	*part1
*staff8	*staff8	*staff8	*staff8	*staff8	*staff8	*staff8	*staff8	*staff7	*staff7	*staff7	*staff7	*staff7	*staff7	*staff7	*staff7	*staff6	*staff6	*staff6	*staff6	*staff6	*staff6	*staff6	*staff6	*staff5	*staff5	*staff5	*staff5	*staff5	*staff5	*staff5	*staff5	*staff4	*staff4	*staff4	*staff4	*staff4	*staff4	*staff4	*staff4	*staff3	*staff3	*staff3	*staff3	*staff3	*staff3	*staff3	*staff3	*staff2	*staff2	*staff2	*staff2	*staff2	*staff2	*staff2	*staff2	*staff1	*staff1	*staff1	*staff1	*staff1	*staff1	*staff1	*staff1
*Iempty	*	*	*	*	*	*	*	*Iempty	*	*	*	*	*	*	*	*Iempty	*	*	*	*	*	*	*	*Iempty	*	*	*	*	*	*	*	*Iempty	*	*	*	*	*	*	*	*Iempty	*	*	*	*	*	*	*	*Iempty	*	*	*	*	*	*	*	*Iempty	*	*	*	*	*	*	*
*I"Baſsus 2di Chori	*	*	*	*	*	*	*	*I"Altus secundi Chori.	*	*	*	*	*	*	*	*I"Cantus 2dus Secundi Chori.	*	*	*	*	*	*	*	*I"Primus Cantus 2di Chori	*	*	*	*	*	*	*	*I"Bassus Primi Chori.	*	*	*	*	*	*	*	*I"Cantus 3tius Primi Chori	*	*	*	*	*	*	*	*I"Cantus 2dus Primi Chori.	*	*	*	*	*	*	*	*I"Im(us) Cantus Primi Chori	*	*	*	*	*	*	*
*I'Coro 2 B	*	*	*	*	*	*	*	*I'Coro 2 A	*	*	*	*	*	*	*	*I'Coro 2 S 2	*	*	*	*	*	*	*	*I'Coro 2 S 1	*	*	*	*	*	*	*	*I'Coro 1 B	*	*	*	*	*	*	*	*I'Coro 1 S 3	*	*	*	*	*	*	*	*I'Coro 1 S 2	*	*	*	*	*	*	*	*I'Coro 1 S 1	*	*	*	*	*	*	*
*clefC3	*	*	*	*	*	*	*	*clefC2	*	*	*	*	*	*	*	*clefC1	*	*	*	*	*	*	*	*clefG2	*	*	*	*	*	*	*	*clefC3	*	*	*	*	*	*	*	*clefC2	*	*	*	*	*	*	*	*clefC1	*	*	*	*	*	*	*	*clefG2	*	*	*	*	*	*	*
*k[]	*	*	*	*	*	*	*	*k[]	*	*	*	*	*	*	*	*k[]	*	*	*	*	*	*	*	*k[]	*	*	*	*	*	*	*	*k[]	*	*	*	*	*	*	*	*k[]	*	*	*	*	*	*	*	*k[]	*	*	*	*	*	*	*	*k[]	*	*	*	*	*	*	*
*C:	*	*	*	*	*	*	*	*C:	*	*	*	*	*	*	*	*C:	*	*	*	*	*	*	*	*C:	*	*	*	*	*	*	*	*C:	*	*	*	*	*	*	*	*C:	*	*	*	*	*	*	*	*C:	*	*	*	*	*	*	*	*C:	*	*	*	*	*	*	*
*M2/1	*	*	*	*	*	*	*	*M2/1	*	*	*	*	*	*	*	*M2/1	*	*	*	*	*	*	*	*M2/1	*	*	*	*	*	*	*	*M2/1	*	*	*	*	*	*	*	*M2/1	*	*	*	*	*	*	*	*M2/1	*	*	*	*	*	*	*	*M2/1	*	*	*	*	*	*	*
*met(C|)	*	*	*	*	*	*	*	*met(C|)	*	*	*	*	*	*	*	*met(C|)	*	*	*	*	*	*	*	*met(C|)	*	*	*	*	*	*	*	*met(C|)	*	*	*	*	*	*	*	*met(C|)	*	*	*	*	*	*	*	*met(C|)	*	*	*	*	*	*	*	*met(C|)	*	*	*	*	*	*	*
=1-	=1-	=1-	=1-	=1-	=1-	=1-	=1-	=1-	=1-	=1-	=1-	=1-	=1-	=1-	=1-	=1-	=1-	=1-	=1-	=1-	=1-	=1-	=1-	=1-	=1-	=1-	=1-	=1-	=1-	=1-	=1-	=1-	=1-	=1-	=1-	=1-	=1-	=1-	=1-	=1-	=1-	=1-	=1-	=1-	=1-	=1-	=1-	=1-	=1-	=1-	=1-	=1-	=1-	=1-	=1-	=1-	=1-	=1-	=1-	=1-	=1-	=1-	=1-
!!LO:TX:a:t=P:W źródle ułożenie taktów wpływa na niewyświetlanie się zmieniającego się metrum:problem
!!LO:TX:t=P:problem:w źródle metrum trójdzielne zapisane jako 3/2, ale ze względu na podział nut w taktach transkrybujemy jako 3/1:global
!!LO:TX:a:t=P:w źródle pogrubione pierwsze litery w tekstach zwrotek w każdym głosie:problem
!	!	!	!	!	!	!	!	!	!	!	!	!	!	!	!	!	!	!	!	!	!	!	!	!	!	!	!	!	!	!	!	!	!	!	!	!	!	!	!	!	!	!	!	!	!	!	!	!	!	!	!	!	!	!	!	!LO:TX:a:Bi:t=Pro Nativitati Christi Domini A 8 V.	!	!	!	!	!	!	!
1r	.	.	.	.	.	.	.	1r	.	.	.	.	.	.	.	1r	.	.	.	.	.	.	.	1r	.	.	.	.	.	.	.	2c/	Ko-	O-	Le-	Ey	Nie-	Dał	A	2cc\	Ko-	O-	Le-	Ey	Nie-	Dał	A	2ee\	Ko-	O-	Le-	Ey	Nie-	Dał	A	2gg\	Ko-	O-	Le-	Ey	Nie-	Dał	A
.	.	.	.	.	.	.	.	.	.	.	.	.	.	.	.	.	.	.	.	.	.	.	.	.	.	.	.	.	.	.	.	4f\	-len-	-puś-	-ży	toć	-chay-	za	prze-	4cc\	-len-	-puś-	-ży	toć	-chay-	za	prze-	4cc\	-len-	-puś-	-ży	toć	-chay-	za	prze-	4ff\	-len-	-puś-	-ży	toć	-chay-	za	prze-
.	.	.	.	.	.	.	.	.	.	.	.	.	.	.	.	.	.	.	.	.	.	.	.	.	.	.	.	.	.	.	.	4a\	-da	-cił	to	po	-że	ko-	-to	4cc\	-da	-cił	to	po	-że	ko-	-to	4cc\	-da	-cił	to	po	-że	ko-	-to	4ee\	-da	-cił	to	po	-że	ko-	-to
2r	.	.	.	.	.	.	.	2r	.	.	.	.	.	.	.	2r	.	.	.	.	.	.	.	2r	.	.	.	.	.	.	.	2g\	wdzięcz-	nie-	sło-	smut-	zew-	-len-	wszy-	2b\	wdzięcz-	nie-	sło-	smut-	zew-	-len-	wszy-	2dd\	wdzięcz-	nie-	sło-	smut-	zew-	-len-	wszy-	2gg\	wdzięcz-	nie-	sło-	smut-	zew-	-len-	wszy-
4r	.	.	.	.	.	.	.	4r	.	.	.	.	.	.	.	4r	.	.	.	.	.	.	.	4r	.	.	.	.	.	.	.	4c/	-na,	-bo	-wo	-ku	-sząd	-de	-scy	4cc\	-na,	-bo	-wo	-ku	-sząd	-de	-scy	4ee\	-na,	-bo	-wo	-ku	-sząd	-de	-scy	4gg\	-na,	-bo	-wo	-ku	-sząd	-de	-scy
4c\	Ko-	O-	Le-	Ey	Nie-	Dał	A	4g\	Ko-	O-	Le-	Ey	Nie-	Dał	A	4cc\	Ko-	O-	Le-	Ey	Nie-	Dał	A	4ee\	Ko-	O-	Le-	Ey	Nie-	Dał	A	4r	.	.	.	.	.	.	.	4r	.	.	.	.	.	.	.	4r	.	.	.	.	.	.	.	4r	.	.	.	.	.	.	.
=3-	=3-	=3-	=3-	=3-	=3-	=3-	=3-	=3-	=3-	=3-	=3-	=3-	=3-	=3-	=3-	=3-	=3-	=3-	=3-	=3-	=3-	=3-	=3-	=3-	=3-	=3-	=3-	=3-	=3-	=3-	=3-	=3-	=3-	=3-	=3-	=3-	=3-	=3-	=3-	=3-	=3-	=3-	=3-	=3-	=3-	=3-	=3-	=3-	=3-	=3-	=3-	=3-	=3-	=3-	=3-	=3-	=3-	=3-	=3-	=3-	=3-	=3-	=3-
4f\	-len-	-puś-	-ży	toć	-chay-	za	prze-	4a\	-len-	-puś-	-ży	toć	-chay-	za	prze-	4cc\	-len-	-puś-	-ży	toć	-chay-	za	prze-	4ff\	-len-	-puś-	-ży	toć	-chay-	za	prze-	1r	.	.	.	.	.	.	.	1r	.	.	.	.	.	.	.	1r	.	.	.	.	.	.	.	1r	.	.	.	.	.	.	.
4g\	-da	-cił	to	po	-że	ko-	-to	4g\	-da	-cił	to	po	-że	ko-	-to	4b\	-da	-cił	to	po	-że	ko-	-to	4dd\	-da	-cił	to	po	-że	ko-	-to	.	.	.	.	.	.	.	.	.	.	.	.	.	.	.	.	.	.	.	.	.	.	.	.	.	.	.	.	.	.	.	.
2c\	wdzięcz-	nie-	sło-	smut-	zew-	-len-	wszy-	2g\	wdzięcz-	nie-	sło-	smut-	zew-	-len-	wszy-	2cc\	wdzięcz-	nie-	sło-	smut-	zew-	-len-	wszy-	2ee\	wdzięcz-	nie-	sło-	smut-	zew-	-len-	wszy-	.	.	.	.	.	.	.	.	.	.	.	.	.	.	.	.	.	.	.	.	.	.	.	.	.	.	.	.	.	.	.	.
4c\	-na,	-bo	-wo	-ku	-sząd	-de	-scy	4g\	-na,	-bo	-wo	-ku	-sząd	-de	-scy	4cc\	-na,	-bo	-wo	-ku	-sząd	-de	-scy	4ee\	-na,	-bo	-wo	-ku	-sząd	-de	-scy	4r	.	.	.	.	.	.	.	4r	.	.	.	.	.	.	.	4r	.	.	.	.	.	.	.	4r	.	.	.	.	.	.	.
4r	.	.	.	.	.	.	.	4r	.	.	.	.	.	.	.	4r	.	.	.	.	.	.	.	4r	.	.	.	.	.	.	.	2c/	nie-	wziął	wiecz-	we-	przy-	wam	we-	2g\	nie-	wziął	wiecz-	we-	przy-	wam	we-	2cc\	nie-	wziął	wiecz-	we-	przy-	wam	we-	2ee\	nie-	wziął	wiecz-	we-	przy-	wam	we-
2r	.	.	.	.	.	.	.	2r	.	.	.	.	.	.	.	2r	.	.	.	.	.	.	.	2r	.	.	.	.	.	.	.	.	.	.	.	.	.	.	.	.	.	.	.	.	.	.	.	.	.	.	.	.	.	.	.	.	.	.	.	.	.	.	.
.	.	.	.	.	.	.	.	.	.	.	.	.	.	.	.	.	.	.	.	.	.	.	.	.	.	.	.	.	.	.	.	4B/	-stwo-	za	-ne	-so-	-bę-	się	-so-	4g\	-stwo-	za	-ne	-so-	-bę-	się	-so-	4dd\	-stwo-	za	-ne	-so-	-bę-	się	-so-	4dd\	-stwo-	za	-ne	-so-	-bę-	się	-so-
=5-	=5-	=5-	=5-	=5-	=5-	=5-	=5-	=5-	=5-	=5-	=5-	=5-	=5-	=5-	=5-	=5-	=5-	=5-	=5-	=5-	=5-	=5-	=5-	=5-	=5-	=5-	=5-	=5-	=5-	=5-	=5-	=5-	=5-	=5-	=5-	=5-	=5-	=5-	=5-	=5-	=5-	=5-	=5-	=5-	=5-	=5-	=5-	=5-	=5-	=5-	=5-	=5-	=5-	=5-	=5-	=5-	=5-	=5-	=5-	=5-	=5-	=5-	=5-
1r	.	.	.	.	.	.	.	1r	.	.	.	.	.	.	.	1r	.	.	.	.	.	.	.	1r	.	.	.	.	.	.	.	4c/	-rzo-	nie-	.	-ła	-dą	po-	-ło	4cc\	-rzo-	nie-	.	-ła	-dą	po-	-ło	4cc\	-rzo-	nie-	.	-ła	-dą	po-	-ło	8ee\L	-rzo-	nie-	w stai-	-ła	-dą	po-	-ło
.	.	.	.	.	.	.	.	.	.	.	.	.	.	.	.	.	.	.	.	.	.	.	.	.	.	.	.	.	.	.	.	.	.	.	.	.	.	.	.	.	.	.	.	.	.	.	.	.	.	.	.	.	.	.	.	8ff\J	.	.	.	.	.	.	.
.	.	.	.	.	.	.	.	.	.	.	.	.	.	.	.	.	.	.	.	.	.	.	.	.	.	.	.	.	.	.	.	4G/	-ne	-bo	-ni	no-	ra-	-ło-	spie-	4b\	-ne	-bo	-ni	no-	ra-	-ło-	spie-	4dd\	-ne	-bo	-ni	no-	ra-	-ło-	spie-	2gg\	-ne	-bo	-ni	no-	ra-	-ło-	spie-
.	.	.	.	.	.	.	.	.	.	.	.	.	.	.	.	.	.	.	.	.	.	.	.	.	.	.	.	.	.	.	.	2d\	sło-	zie-	w żło-	-wi-	-doś-	-żo-	-wai-	2a\	sło-	zie-	w żło-	-wi-	-doś-	-żo-	-wai-	2dd\	sło-	zie-	w żło-	-wi-	-doś-	-żo-	-wai-	.	.	.	.	.	.	.	.
!	!	!	!	!	!	!	!	!	!	!	!	!	!	!	!	!	!	!	!	!	!	!	!	!	!	!	!	!	!	!	!	!	!	!	!	!	!	!	!	!	!	!	!	!	!	!	!	!	!	!	!	!	!	!	!	!LO:TX:t=P:problem=# above	!	!	!	!	!	!	!
.	.	.	.	.	.	.	.	.	.	.	.	.	.	.	.	.	.	.	.	.	.	.	.	.	.	.	.	.	.	.	.	.	.	.	.	.	.	.	.	.	.	.	.	.	.	.	.	.	.	.	.	.	.	.	.	4ff#X\	sło-	zie-	w żło-	-wi-	-doś-	-żo-	-wai-
4r	.	.	.	.	.	.	.	4r	.	.	.	.	.	.	.	4r	.	.	.	.	.	.	.	4r	.	.	.	.	.	.	.	4G/	-woi.	-mię	-bie	-na	-ci	-ny	-cie	4b\	-woi.	-mię	-bie	-na	-ci	-ny	-cie	4dd\	-woi.	-mię	-bie	-na	-ci	-ny	-cie	4gg\	-woi.	-mię	-bie	-na	-ci	-ny	-cie
2c\	nie-	wziął	wiecz-	we-	przy-	wam	we-	2g\	nie-	wziął	wiecz-	we-	przy-	wam	we-	2cc\	nie-	wziął	wiecz-	we-	przy-	wam	we-	2ee\	nie-	wziął	wiecz-	we-	przy-	wam	we-	4r	.	.	.	.	.	.	.	4r	.	.	.	.	.	.	.	4r	.	.	.	.	.	.	.	4r	.	.	.	.	.	.	.
.	.	.	.	.	.	.	.	.	.	.	.	.	.	.	.	.	.	.	.	.	.	.	.	.	.	.	.	.	.	.	.	2r	.	.	.	.	.	.	.	2r	.	.	.	.	.	.	.	2r	.	.	.	.	.	.	.	2r	.	.	.	.	.	.	.
4c\	-stwo-	za	-ne	-so-	-bę-	się	-so-	4g\	-stwo-	za	-ne	-so-	-bę-	się	-so-	4cc\	-stwo-	za	-ne	-so-	-bę-	się	-so-	4ee\	-stwo-	za	-ne	-so-	-bę-	się	-so-	.	.	.	.	.	.	.	.	.	.	.	.	.	.	.	.	.	.	.	.	.	.	.	.	.	.	.	.	.	.	.	.
=7-	=7-	=7-	=7-	=7-	=7-	=7-	=7-	=7-	=7-	=7-	=7-	=7-	=7-	=7-	=7-	=7-	=7-	=7-	=7-	=7-	=7-	=7-	=7-	=7-	=7-	=7-	=7-	=7-	=7-	=7-	=7-	=7-	=7-	=7-	=7-	=7-	=7-	=7-	=7-	=7-	=7-	=7-	=7-	=7-	=7-	=7-	=7-	=7-	=7-	=7-	=7-	=7-	=7-	=7-	=7-	=7-	=7-	=7-	=7-	=7-	=7-	=7-	=7-
4f\	-rzo-	nie-	.	-ła	-dą	po-	-ło	4a\	-rzo-	nie-	.	-ła	-dą	po-	-ło	4cc\	-rzo-	nie-	.	-ła	-dą	po-	-ło	4cc\	-rzo-	nie-	.	-ła	-dą	po-	-ło	1r	.	.	.	.	.	.	.	1r	.	.	.	.	.	.	.	1r	.	.	.	.	.	.	.	1r	.	.	.	.	.	.	.
4a\	-ne	-bo	-ni	no-	ra-	-ło-	spie-	4cc\	-ne	-bo	-ni	no-	ra-	-ło-	spie-	4cc\	-ne	-bo	-ni	no-	ra-	-ło-	spie-	4cc\	-ne	-bo	-ni	no-	ra-	-ło-	spie-	.	.	.	.	.	.	.	.	.	.	.	.	.	.	.	.	.	.	.	.	.	.	.	.	.	.	.	.	.	.	.	.
2g\	sło-	zie-	w żło-	-wi-	-doś-	-żo-	-wai-	2g\	sło-	zie-	w żło-	-wi-	-doś-	-żo-	-wai-	2b\	sło-	zie-	w żło-	-wi-	-doś-	-żo-	-wai-	2dd\	sło-	zie-	w żło-	-wi-	-doś-	-żo-	-wai-	.	.	.	.	.	.	.	.	.	.	.	.	.	.	.	.	.	.	.	.	.	.	.	.	.	.	.	.	.	.	.	.
4c\	-woi.	-mię	-bie	-na	-ci	-ny	-cie	4g\	-woi.	-mię	-bie	-na	-ci	-ny	-cie	4cc\	-woi.	-mię	-bie	-na	-ci	-ny	-cie	4ee\	-woi.	-mię	-bie	-na	-ci	-ny	-cie	4r	.	.	.	.	.	.	.	4r	.	.	.	.	.	.	.	4r	.	.	.	.	.	.	.	4r	.	.	.	.	.	.	.
4r	.	.	.	.	.	.	.	4r	.	.	.	.	.	.	.	4r	.	.	.	.	.	.	.	4r	.	.	.	.	.	.	.	4c/	Syn	Cze-	na	Dzi-	Zbyt-	w żło-	A-	4cc\	Syn	Cze-	na	dzi-	Zbyt-	w żło-	A-	4ee\	Syn	Cze-	na	Dzi-	Zbyt-	w żło-	A-	4ee\	Syn	Cze-	na	Dzi-	Zbyt-	w żło-	A-
2r	.	.	.	.	.	.	.	2r	.	.	.	.	.	.	.	2r	.	.	.	.	.	.	.	2r	.	.	.	.	.	.	.	2d\	Bo-	.	zba-	-sia	-noś-	.	-te-	4.a\	Bo-	.	zba-	-sia	-nos-	.	-te-	2dd\	Bo-	.	zba-	-siai	-nos-	.	-te-	2ffny\	Bo-	.	zba-	-sia	-nos-	.	-te-
.	.	.	.	.	.	.	.	.	.	.	.	.	.	.	.	.	.	.	.	.	.	.	.	.	.	.	.	.	.	.	.	.	.	.	.	.	.	.	.	8b\	-ży	-mu	-wien-	nam	.	-bie	-mu	.	.	.	.	.	.	.	.	.	.	.	.	.	.	.	.
=9-	=9-	=9-	=9-	=9-	=9-	=9-	=9-	=9-	=9-	=9-	=9-	=9-	=9-	=9-	=9-	=9-	=9-	=9-	=9-	=9-	=9-	=9-	=9-	=9-	=9-	=9-	=9-	=9-	=9-	=9-	=9-	=9-	=9-	=9-	=9-	=9-	=9-	=9-	=9-	=9-	=9-	=9-	=9-	=9-	=9-	=9-	=9-	=9-	=9-	=9-	=9-	=9-	=9-	=9-	=9-	=9-	=9-	=9-	=9-	=9-	=9-	=9-	=9-
*	*	*	*	*	*	*	*	*	*	*	*	*	*	*	*	*	*	*	*	*	*	*	*	*	*	*	*	*	*	*	*	*	*	*	*	*	*	*	*	*	*ij	*	*	*	*	*	*	*	*	*	*	*	*	*	*	*	*	*	*	*	*	*	*
!	!	!	!	!	!	!	!	!	!	!	!	!	!	!	!	!	!	!	!	!	!	!	!	!	!	!	!	!	!	!	!	!	!	!	!	!	!	!	!	!	!	!	!	!	!	!	!	!	!	!	!	!	!	!	!	!LO:TX:t=P:global:problem=kreska oddechu na różnych liniach [rozdzielacz słów / znak oddechu]	!	!	!	!	!	!	!
4r	.	.	.	.	.	.	.	1r	.	.	.	.	.	.	.	4r	.	.	.	.	.	.	.	4r	.	.	.	.	.	.	.	4c/	-ży	-mu	-wien-	wam	-ci	-bie	-mu	4cc\	Syn	z nie-	-ną	Pan-	-ci	we-	dzie-	4ee\	-ży	-mu	-wien-	wam	-ci	-bie	-mu	4ee,<\	-ży	-mu	-wien-	wam	-ci	-bie	-mu
*	*	*	*	*	*	*	*	*	*	*	*	*	*	*	*	*	*	*	*	*	*	*	*	*	*	*	*	*	*	*	*	*	*ij	*	*	*	*	*	*	*	*	*	*	*	*	*	*	*	*ij	*	*	*	*	*	*	*	*ij	*ij	*	*ij	*ij	*ij	*ij
4A/	Syn	Cze-	na	Dzi-	Zbyt-	w żło-	A-	.	.	.	.	.	.	.	.	4cc\	Syn	Cze-	na	Dzi-	Zbyt-	w żło-	A-	4ee\	Syn	Cze-	na	Dzi-	Zbyt-	w żło-	A-	4a\	Syn	z nie-	-ną	dzi-	zbyt-	we-	dzie-	2a\	Bo-	-wo-	ra-	.	Pa-	-se-	-ciąt-	4a\	Syn	z nie-	-ną	Pan-	zbyt-	We-	dzie-	4aa\	Syn	Cze-	-ną	dzi-	zbyt-	w żło-	A
*	*	*	*	*	*	*	*	*	*	*	*	*	*	*	*	*	*	*	*	*	*	*	*	*	*	*	*	*	*	*	*	*	*	*	*	*	*	*	*	*	*	*	*	*	*	*	*	*	*	*	*	*	*	*	*	*	*	*	*ij	*	*	*	*
2B-X/	Bo-	.	zba-	-sia	-nos-	.	-te-	.	.	.	.	.	.	.	.	2dd\	Bo-	-mu	zba-	-sia	-nos-	.	-te-	2dd\	Bo-	-mu	zba-	-sia	-noś-	-bie	-te-	2d\	Bo-	-wo-	radość	-sia	-no-	-se-	-ciąt-	.	.	.	.	.	.	.	.	2dd\	Bo-	-wo-	ra-	-na	.	-se-	-cią-	4ff\	Bo-	.	na	.	.	.	te-
.	.	.	.	.	.	.	.	.	.	.	.	.	.	.	.	.	.	.	.	.	.	.	.	.	.	.	.	.	.	.	.	.	.	.	.	.	.	.	.	4d/	-ży	-lei	-dość-	-na	-na	-ląc	-ku	.	.	.	.	.	.	.	.	4gg\	-ży	-mu	zba-	-sia	-noś-	-bie	-mu
*	*	*	*	*	*	*	*	*	*	*	*	*	*	*	*	*	*	*	*	*	*	*	*	*	*	*	*	*	*	*	*	*	*	*	*	*	*	*	*	*	*Xij	*	*	*	*	*	*	*	*	*	*	*	*	*	*	*	*Xij	*Xij	*	*	*	*Xij	*Xij
!	!	!	!	!	!	!	!	!	!	!	!	!	!	!	!	!	!	!	!	!	!	!	!	!	!	!	!	!	!	!	!	!LO:PB:g=original	!	!	!	!	!	!	!	!	!	!	!	!	!	!	!	!	!	!	!	!	!	!	!	!	!	!	!	!	!	!	!
!	!	!	!	!	!	!	!	!	!	!	!	!	!	!	!	!	!	!	!	!	!	!	!	!	!	!	!	!	!	!	!	!LO:TX:t=P:global:problem=kreska oddechu na różnych liniach [rozdzielacz słów / znak oddechu]	!	!	!	!	!	!	!	!	!	!	!	!	!	!	!	!	!	!	!	!	!	!	!	!	!	!	!	!	!	!	!
4A/	-ży	-mu	-wien-	wam	-ci	-bie	-mu	2r	.	.	.	.	.	.	.	1cc	-ży	z nie-	-wien-	wam	-ci	-bie	-mu	1ee	-ży	z nie-	-wien-	wam	-ci	we-	-mu	1a,<	-ży	-ley	dość	wam	-ści	-ląc	-ku	2r	.	.	.	.	.	.	.	2a\	-ży	-ley	-dość	po-	-noś-	-ląc	-tku	2.aa\	s Pan-	z nie-	-wien-	wam	-ci	we-	dzie-
4B-/	.	.	.	.	.	.	.	.	.	.	.	.	.	.	.	.	.	.	.	.	.	.	.	.	.	.	.	.	.	.	.	.	.	.	.	.	.	.	.	.	.	.	.	.	.	.	.	.	.	.	.	.	.	.	.	.	.	.	.	.	.	.	.
*	*	*	*	*	*	*	*	*	*	*	*	*	*	*	*	*	*	*	*	*	*	*	*	*	*	*	*	*	*	*	*	*	*	*	*	*	*	*	*	*	*	*	*	*	*	*	*	*	*Xij	*	*	*	*	*	*	*	*	*	*	*	*	*	*
!	!	!	!	!	!	!	!	!	!	!	!	!	!	!	!	!	!	!	!	!	!	!	!	!	!	!	!	!	!	!	!	!	!	!	!	!	!	!	!	!LO:PB:g=original	!	!	!	!	!	!	!	!	!	!	!	!	!	!	!	!	!	!	!	!	!	!	!
4c\	.	.	.	.	.	.	.	2e/	Syn	Cze-	na	dzi-	Zbyt-	w żło-	A-	.	.	.	.	.	.	.	.	.	.	.	.	.	.	.	.	.	.	.	.	.	.	.	.	2.a\	s Pan-	z nie-	ra-	Pan-	Pa-	we-	dzie-	2ee\	s Pan-	z nie-	ra-	-ro-	-ci	we-	dzie-	.	.	.	.	.	.	.	.
*	*	*	*	*	*	*	*	*	*	*	*	*	*	*	*	*	*	*	*	*	*	*	*	*	*	*	*	*	*	*	*	*	*	*	*	*	*	*	*	*	*	*	*	*	*	*	*	*	*	*	*	*	*	*	*	*	*	*	*	*Xij	*Xij	*	*
4d\	.	.	.	.	.	.	.	.	.	.	.	.	.	.	.	.	.	.	.	.	.	.	.	.	.	.	.	.	.	.	.	.	.	.	.	.	.	.	.	.	.	.	.	.	.	.	.	.	.	.	.	.	.	.	.	8gg\L	.	.	ną	.	.	.	.
*	*	*	*	*	*	*	*	*	*	*	*	*	*	*	*	*	*	*	*	*	*	*	*	*	*	*	*	*	*	*	*	*	*	*	*	*	*	*	*	*	*	*	*	*	*	*	*	*	*	*	*	*	*	*	*	*	*	*	*Xij	*	*	*	*
.	.	.	.	.	.	.	.	.	.	.	.	.	.	.	.	.	.	.	.	.	.	.	.	.	.	.	.	.	.	.	.	.	.	.	.	.	.	.	.	.	.	.	.	.	.	.	.	.	.	.	.	.	.	.	.	8ff\J	.	.	.	.	.	.	.
*	*	*	*	*	*	*	*	*	*	*	*	*	*	*	*	*	*	*	*	*	*	*	*	*	*	*	*	*	*	*	*	*	*Xij	*	*	*	*	*	*	*	*	*	*	*	*	*	*	*	*	*	*	*	*	*	*	*	*	*	*	*	*	*	*
!LO:PB:g=original	!	!	!	!	!	!	!	!	!	!	!	!	!	!	!	!	!	!	!	!	!	!	!	!	!	!	!	!	!	!	!	!	!	!	!	!	!	!	!	!	!	!	!	!	!	!	!	!LO:PB:g=original	!	!	!	!	!	!	!	!LO:PB:g=original	!	!	!	!	!	!	!
=11-	=11-	=11-	=11-	=11-	=11-	=11-	=11-	=11-	=11-	=11-	=11-	=11-	=11-	=11-	=11-	=11-	=11-	=11-	=11-	=11-	=11-	=11-	=11-	=11-	=11-	=11-	=11-	=11-	=11-	=11-	=11-	=11-	=11-	=11-	=11-	=11-	=11-	=11-	=11-	=11-	=11-	=11-	=11-	=11-	=11-	=11-	=11-	=11-	=11-	=11-	=11-	=11-	=11-	=11-	=11-	=11-	=11-	=11-	=11-	=11-	=11-	=11-	=11-
1e	s Pan-	z nie-	ra-	Pan-	Pa-	-se-	dzieciąt-	2e/	Bo-	-mu	zba-	-siai	-nos-	bie	-te-	1b	s Pan-	-wo-	ra-	Pan-	Pa-	-se-	dzieciąt-	1ee	s Pan-	-wo-	ra-	Pan-	Pa-	-se-	dzieciąt-	2a\	s Pan-	z nie-	ra-	Pan-	Pa-	we-	dzie-	.	.	.	.	.	.	.	.	1b	.	-wo-	.	-dzi-	Pa-	-se-	-cią-	1ee	.	-wo-	ra-	Pan-	Pa-	-se-	-cią-
.	.	.	.	.	.	.	.	.	.	.	.	.	.	.	.	.	.	.	.	.	.	.	.	.	.	.	.	.	.	.	.	.	.	.	.	.	.	.	.	8g\L	.	-wo-	.	.	.	.	.	.	.	.	.	.	.	.	.	.	.	.	.	.	.	.	.
.	.	.	.	.	.	.	.	.	.	.	.	.	.	.	.	.	.	.	.	.	.	.	.	.	.	.	.	.	.	.	.	.	.	.	.	.	.	.	.	8f\J	.	.	.	.	.	.	.	.	.	.	.	.	.	.	.	.	.	.	.	.	.	.	.
!	!	!	!	!	!	!	!	!	!	!	!	!	!	!	!	!LO:PB:g=original	!	!	!	!	!	!	!	!	!	!	!	!	!	!	!	!	!	!	!	!	!	!	!	!	!	!	!	!	!	!	!	!	!	!	!	!	!	!	!	!	!	!	!	!	!	!	!
!	!	!	!	!	!	!	!	!	!	!	!	!	!	!	!	!	!	!	!	!	!	!	!	!	!	!	!	!	!	!	!	!	!	!	!	!	!	!	!	!LO:TX:t=P:problem=# below	!	!	!	!	!	!	!	!	!	!	!	!	!	!	!	!	!	!	!	!	!	!	!
.	.	.	.	.	.	.	.	2e/	-ży	z nie-	-wien-	wam	-ci	we-	-mu	.	.	.	.	.	.	.	.	.	.	.	.	.	.	.	.	2d\	.	-wo-	.	.	.	-se-	-cią-	2g#X\	.	.	.	.	.	-se-	-ciąt-	.	.	.	.	.	.	.	.	.	.	.	.	.	.	.	.
!	!	!	!	!	!	!	!	!	!	!	!	!	!	!	!	!	!	!	!	!	!	!	!	!LO:PB:g=original	!	!	!	!	!	!	!	!	!	!	!	!	!	!	!	!	!	!	!	!	!	!	!	!	!	!	!	!	!	!	!	!	!	!	!	!	!	!	!
!	!	!	!	!	!	!	!	!	!	!	!	!	!	!	!	!	!	!	!	!	!	!	!	!	!	!	!	!	!	!	!	!	!	!	!	!	!	!	!	!LO:TX:t=P:global:problem=kreska oddechu na różnych liniach [rozdzielacz słów / znak oddechu]	!	!	!	!	!	!	!	!	!	!	!	!	!	!	!	!	!	!	!	!	!	!	!
!	!	!	!	!	!	!	!	!LO:TX:a:t=P:problem=w źródle nuty zamazane	!	!	!	!	!	!	!	!	!	!	!	!	!	!	!	!	!	!	!	!	!	!	!	!	!	!	!	!	!	!	!	!	!	!	!	!	!	!	!	!	!	!	!	!	!	!	!	!	!	!	!	!	!	!	!
!LO:TX:t=P:global:problem=kreska oddechu na różnych liniach [rozdzielacz słów / znak oddechu]	!	!	!	!	!	!	!	!	!	!	!	!	!	!	!	!	!	!	!	!	!	!	!	!	!	!	!	!	!	!	!	!	!	!	!	!	!	!	!	!	!	!	!	!	!	!	!	!	!	!	!	!	!	!	!	!	!	!	!	!	!	!	!
2A,</	-ny	-ley	-dość	-na	-na	-ląc	-ku	2a\	s Pan-	-wo-	ną	Pan-	Pa-	-se-	dzieciąt-	2a\	-ny	-ley	-dość	-na	-na	-ląc	-ku	2ee\	-ny	-ley	-dość	-na	-na	-ląc	-ku	2a,<\	-ny	-ley	-dość	-na	-na	-ląc	-tku	1a,<	-ny	-lei	-dość	-na	-na	-ląc	-ku	2cc#X\	-ny	-ley	-dość	-ła	-na	-ląc	-tku	2ee,<\	-ny	-ley	-dość	-na	-na	-ląc	-tku
!	!	!	!	!	!	!	!	!	!	!	!	!	!	!	!	!	!	!	!	!	!	!	!	!	!	!	!	!	!	!	!	!	!	!	!	!	!	!	!	!	!	!	!	!	!	!	!	!	!	!	!	!	!	!	!	!LO:TX:t=P:problem=# below	!	!	!	!	!	!	!
1d\	na-	wyr-	czło-	po-	wiel-	wszy-	chwa-	2a\	-ny	-ley	ra-	-na	-na	-ląc	-ku	2a\	na-	wyr-	czło-	po-	wiel-	wszy-	chwa-	1dd\	na-	wyr-	czło-	po-	wiel-	wszy-	chwa-	1d\	na-	wyr-	czło-	po-	wiel-	wszy-	chwa-	.	.	.	.	.	.	.	.	1dd\	na-	wyr-	czło-	po-	wiel-	wszy-	chwa-	1ff#X\	na-	wyr-	czło-	po-	wiel-	wszy-	chwa-
!	!	!	!	!	!	!	!	!LO:PB:g=original	!	!	!	!	!	!	!	!	!	!	!	!	!	!	!	!	!	!	!	!	!	!	!	!	!	!	!	!	!	!	!	!	!	!	!	!	!	!	!	!	!	!	!	!	!	!	!	!	!	!	!	!	!	!	!
=13-	=13-	=13-	=13-	=13-	=13-	=13-	=13-	=13-	=13-	=13-	=13-	=13-	=13-	=13-	=13-	=13-	=13-	=13-	=13-	=13-	=13-	=13-	=13-	=13-	=13-	=13-	=13-	=13-	=13-	=13-	=13-	=13-	=13-	=13-	=13-	=13-	=13-	=13-	=13-	=13-	=13-	=13-	=13-	=13-	=13-	=13-	=13-	=13-	=13-	=13-	=13-	=13-	=13-	=13-	=13-	=13-	=13-	=13-	=13-	=13-	=13-	=13-	=13-
.	.	.	.	.	.	.	.	2d/	na-	wyr-	-dość	po-	wiel-	wszy-	Chwa-	1dd	-ro-	-wie	-wie-	-ro-	-kiey	-stkie	-łę	.	.	.	.	.	.	.	.	.	.	.	.	.	.	.	.	2a\	na-	wyr-	czło-	po-	wiel-	wszy-	chwa-	.	.	.	.	.	.	.	.	.	.	.	.	.	.	.	.
2G/	-ro-	-wie	-wie-	-ro-	-kiey	-stkie	-łę	2d/	-ro-	-wie	czło-	-ro-	-kiei	-stkie	-łę	.	.	.	.	.	.	.	.	2dd\	-ro-	-wie	-wie-	-ro-	-kiey	-stkie	-łę	2g\	-ro-	-wie	-wie-	-ro-	-kiey	-stkie	-łę	2gny\	-ro-	-wie	-wie-	-ro-	-kiey	-stkie	-łę	2b\	-ro-	-wie	-wie-	-ro-	-kiey	-stkie	-łę	2gg\	-ro-	-wie	-wie-	-ro-	-kiey	-stkie	-łę
2c\	-dził	ludz-	-cze	-dzi-	ła-	świa-	od-	2.g\	-dził	ludz-	-wie-	-dzi-	Ła-	świa-	od-	2cc\	-dził	ludz-	-cze	-dzi-	ła-	świa-	od-	2ee\	-dził	ludz-	-cze	-dzi-	ła-	świa-	od-	2c/	-dził	ludz-	-cze	-dzi-	ła-	świa-	od-	2g\	-dził	ludz-	-cze	-dzi-	ła-	świa-	od-	2cc\	-dził	ludz-	-cze	-dzi-	ła-	świa-	od-	4ee\	-dził	ludz-	-cze	-dzi-	ła-	świa-	od-
.	.	.	.	.	.	.	.	.	.	.	.	.	.	.	.	.	.	.	.	.	.	.	.	.	.	.	.	.	.	.	.	.	.	.	.	.	.	.	.	.	.	.	.	.	.	.	.	.	.	.	.	.	.	.	.	4ffny\	.	.	.	.	.	.	.
2G/	się	-kie	.	ła	-ska-	-ta	-dai-	.	.	.	.	.	.	.	.	2b\	się	-kie	.	ła	-ska-	-ta	-dai-	2dd\	się	-kie	.	ła	-ska-	-ta	-dai-	2g\	się	-kie	.	ła	-ska-	-ta	-dai-	2g\	się	-kie	.	ła	-ska-	-ta	-dai-	2dd\	się	-kie	.	-ła	-ska-	-ta	-dai-	2.gg\	się	-kie	.	ła	-ska-	-ta	-dai-
.	.	.	.	.	.	.	.	4d/	się	-kie	-cze	ła	-ska-	-ta	-dai-	.	.	.	.	.	.	.	.	.	.	.	.	.	.	.	.	.	.	.	.	.	.	.	.	.	.	.	.	.	.	.	.	.	.	.	.	.	.	.	.	.	.	.	.	.	.	.	.
=15-	=15-	=15-	=15-	=15-	=15-	=15-	=15-	=15-	=15-	=15-	=15-	=15-	=15-	=15-	=15-	=15-	=15-	=15-	=15-	=15-	=15-	=15-	=15-	=15-	=15-	=15-	=15-	=15-	=15-	=15-	=15-	=15-	=15-	=15-	=15-	=15-	=15-	=15-	=15-	=15-	=15-	=15-	=15-	=15-	=15-	=15-	=15-	=15-	=15-	=15-	=15-	=15-	=15-	=15-	=15-	=15-	=15-	=15-	=15-	=15-	=15-	=15-	=15-
1d	no-	ple-	to-	sy-	-woś-	stro-	.	1d	no-	ple-	to-	sy-	-woś-	stro-	.	1a	no-	ple-	to-	sy-	-woś-	stro-	.	1dd	no-	ple-	to-	sy-	-woś-	stro-	.	1d	no-	ple-	to-	sy-	-woś-	stro-	.	1a	no-	ple-	to-	sy-	-woś-	stro-	.	1dd	no-	ple-	to-	sy-	-woś-	stro-	.	.	.	.	.	.	.	.	.
.	.	.	.	.	.	.	.	.	.	.	.	.	.	.	.	.	.	.	.	.	.	.	.	.	.	.	.	.	.	.	.	.	.	.	.	.	.	.	.	.	.	.	.	.	.	.	.	.	.	.	.	.	.	.	.	8ff\L	.	.	.	.	.	.	.
.	.	.	.	.	.	.	.	.	.	.	.	.	.	.	.	.	.	.	.	.	.	.	.	.	.	.	.	.	.	.	.	.	.	.	.	.	.	.	.	.	.	.	.	.	.	.	.	.	.	.	.	.	.	.	.	8ee\J	.	.	.	.	.	.	.
!	!	!	!	!	!	!	!	!	!	!	!	!	!	!	!	!	!	!	!	!	!	!	!	!	!	!	!	!	!	!	!	!	!	!	!	!	!	!	!	!	!	!	!	!	!	!	!	!	!	!	!	!	!	!	!	!LO:TX:t=P:problem=# below	!	!	!	!	!	!	!
.	.	.	.	.	.	.	.	.	.	.	.	.	.	.	.	.	.	.	.	.	.	.	.	.	.	.	.	.	.	.	.	.	.	.	.	.	.	.	.	.	.	.	.	.	.	.	.	.	.	.	.	.	.	.	.	2ff#X\	no-	ple-	to-	sy-	-woś-	stro-	.
*M3/1	*	*	*	*	*	*	*	*M3/1	*	*	*	*	*	*	*	*M3/1	*	*	*	*	*	*	*	*M3/1	*	*	*	*	*	*	*	*M3/1	*	*	*	*	*	*	*	*M3/1	*	*	*	*	*	*	*	*M3/1	*	*	*	*	*	*	*	*M3/1	*	*	*	*	*	*	*
2G/	-wo	-mię	-bie.	-na	-ci	-ny	-cie	2d/	-wo	-mię	-bie.	-na	-ci	-ny	-cie	2b\	-wo	-mię	-bie.	-na	-ci	-ny	-cie	2dd\	-wo	-mię	-bie.	-na	-ci	-ny	-cie	2g,<\	-wo	-mię	-bie.	-na	-ci	-ny	-cie	2g\	-wo	-mię	-bie.	-na	-ci	-ny	-cie	2dd\	-wo	-mię	-bie.	-na	-ci	-ny	-cie	2gg,<\	-wo	-mię	-bie.	-na	-ci	-ny	-cie
2r	.	.	.	.	.	.	.	2r	.	.	.	.	.	.	.	2r	.	.	.	.	.	.	.	2r	.	.	.	.	.	.	.	2e\	Al-	Al-	Al-	Al-	Al-	Al-	Al-	2b\	Al-	Al-	Al-	Al-	Al-	Al-	Al-	2ee\	Al-	Al-	Al-	Al-	Al-	Al-	Al-	2gg\	Al-	Al-	Al-	Al-	Al-	Al-	Al-
2r	.	.	.	.	.	.	.	2r	.	.	.	.	.	.	.	2r	.	.	.	.	.	.	.	2r	.	.	.	.	.	.	.	2c/	-l(e)-	-l(e)-	-l(e)-	-l(e)-	-l(e)-	-l(e)-	-l(e)-	2cc\	-l(e)-	-l(e)-	-l(e)-	-l(e)-	-l(e)-	-l(e)-	-l(e)-	2ee\	-l(e)-	-l(e)-	-l(e)-	-l(e)-	-l(e)-	-l(e)-	-l(e)-	2ee\	-l(e)-	-l(e)-	-l(e)-	-l(e)-	-l(e)-	-l(e)-	-l(e)-
=17-	=17-	=17-	=17-	=17-	=17-	=17-	=17-	=17-	=17-	=17-	=17-	=17-	=17-	=17-	=17-	=17-	=17-	=17-	=17-	=17-	=17-	=17-	=17-	=17-	=17-	=17-	=17-	=17-	=17-	=17-	=17-	=17-	=17-	=17-	=17-	=17-	=17-	=17-	=17-	=17-	=17-	=17-	=17-	=17-	=17-	=17-	=17-	=17-	=17-	=17-	=17-	=17-	=17-	=17-	=17-	=17-	=17-	=17-	=17-	=17-	=17-	=17-	=17-
0.r	.	.	.	.	.	.	.	0.r	.	.	.	.	.	.	.	0.r	.	.	.	.	.	.	.	0.r	.	.	.	.	.	.	.	1g	-(lu)-	-(lu)-	-(lu)-	-(lu)-	-(lu)-	-(lu)-	-(lu)-	1b	-(lu)-	-(lu)-	-(lu)-	-(lu)-	-(lu)-	-(lu)-	-(lu)-	1dd	-(lu)-	-(lu)-	-(lu)-	-(lu)-	-(lu)-	-(lu)-	-(lu)-	1gg	-(lu)-	-(lu)-	-(lu)-	-(lu)-	-(lu)-	-(lu)-	-(lu)-
.	.	.	.	.	.	.	.	.	.	.	.	.	.	.	.	.	.	.	.	.	.	.	.	.	.	.	.	.	.	.	.	2e,<\	-(j)a	-(j)a	-(j)a	-(j)a	-(j)a	-(j)a	-(j)a	2cc\	-(j)a	-(j)a	-(j)a	-(j)a	-(j)a	-(j)a	-(j)a	2ee\	-(j)a	-(j)a	-(j)a	-(j)a	-(j)a	-(j)a	-(j)a	2gg\	-(j)a	-(j)a	-(j)a	-(j)a	-(j)a	-(j)a	-(j)a
*	*	*	*	*	*	*	*	*	*	*	*	*	*	*	*	*	*	*	*	*	*	*	*	*	*	*	*	*	*	*	*	*	*	*	*	*	*	*	*	*	*	*ij	*ij	*ij	*ij	*ij	*ij	*	*	*	*	*	*	*	*	*	*	*ij	*ij	*ij	*ij	*ij	*ij
.	.	.	.	.	.	.	.	.	.	.	.	.	.	.	.	.	.	.	.	.	.	.	.	.	.	.	.	.	.	.	.	2f\	Al-	Al-	Al-	Al-	Al-	Al-	Al-	2a\	Al-	Al-	Al-	Al-	Al-	Al-	Al-	2cc\	Al-	Al-	Al-	Al-	Al-	Al-	Al-	2ffny\	Al-	Al-	Al-	Al-	Al-	Al-	Al-
.	.	.	.	.	.	.	.	.	.	.	.	.	.	.	.	.	.	.	.	.	.	.	.	.	.	.	.	.	.	.	.	2c/	-l(e)-	-l(e)-	-l(e)-	-l(e)-	-l(e)-	-l(e)-	-l(e)-	2cc\	-l(e)-	-l(e)-	-l(e)-	-l(e)-	-l(e)-	-l(e)-	-l(e)-	2cc\	-l(e)-	-l(e)-	-l(e)-	-l(e)-	-l(e)-	-l(e)-	-l(e)-	2ee\	-l(e)-	-l(e)-	-l(e)-	-l(e)-	-l(e)-	-l(e)-	-l(e)-
.	.	.	.	.	.	.	.	.	.	.	.	.	.	.	.	.	.	.	.	.	.	.	.	.	.	.	.	.	.	.	.	2g\	-(lu)-	-(lu)-	-(lu)-	-(lu)-	-(lu)-	-(lu)-	-(lu)-	2b\	-(lu)-	-(lu)-	-(lu)-	-(lu)-	-(lu)-	-(lu)-	-(lu)-	2dd\	-(lu)-	-(lu)-	-(lu)-	-(lu)-	-(lu)-	-(lu)-	-(lu)-	2dd\	-(lu)-	-(lu)-	-(lu)-	-(lu)-	-(lu)-	-(lu)-	-(lu)-
=19-	=19-	=19-	=19-	=19-	=19-	=19-	=19-	=19-	=19-	=19-	=19-	=19-	=19-	=19-	=19-	=19-	=19-	=19-	=19-	=19-	=19-	=19-	=19-	=19-	=19-	=19-	=19-	=19-	=19-	=19-	=19-	=19-	=19-	=19-	=19-	=19-	=19-	=19-	=19-	=19-	=19-	=19-	=19-	=19-	=19-	=19-	=19-	=19-	=19-	=19-	=19-	=19-	=19-	=19-	=19-	=19-	=19-	=19-	=19-	=19-	=19-	=19-	=19-
2r	.	.	.	.	.	.	.	2r	.	.	.	.	.	.	.	2r	.	.	.	.	.	.	.	2r	.	.	.	.	.	.	.	2c/	-(j)a	-(j)a	-(j)a	-(j)a	-(j)a	-(j)a	-(j)a	2cc\	-(j)a	-(j)a	-(j)a	-(j)a	-(j)a	-(j)a	-(j)a	2cc\	-(j)a	-(j)a	-(j)a	-(j)a	-(j)a	-(j)a	-(j)a	2ee\	-(j)a	-(j)a	-(j)a	-(j)a	-(j)a	-(j)a	-(j)a
*	*	*	*	*	*	*	*	*	*	*	*	*	*	*	*	*	*	*	*	*	*	*	*	*	*	*	*	*	*	*	*	*	*	*	*	*	*	*	*	*	*	*Xij	*Xij	*Xij	*Xij	*Xij	*Xij	*	*	*	*	*	*	*	*	*	*	*Xij	*Xij	*Xij	*Xij	*Xij	*Xij
2c\	Al-	Al-	Al-	Al-	Al-	Al-	Al-	2cc\	Al-	Al-	Al-	Al-	Al-	Al-	Al-	2cc\	Al-	Al-	Al-	Al-	Al-	Al-	Al-	2ee\	Al-	Al-	Al-	Al-	Al-	Al-	Al-	2r	.	.	.	.	.	.	.	2r	.	.	.	.	.	.	.	2r	.	.	.	.	.	.	.	2r	.	.	.	.	.	.	.
2g\	-l(e)-	-l(e)-	-l(e)-	-l(e)-	-l(e)-	-l(e)-	-l(e)-	2b\	-l(e)-	-l(e)-	-l(e)-	-l(e)-	-l(e)-	-l(e)-	-l(e)-	2dd\	-l(e)-	-l(e)-	-l(e)-	-l(e)-	-l(e)-	-l(e)-	-l(e)-	2dd\	-l(e)-	-l(e)-	-l(e)-	-l(e)-	-l(e)-	-l(e)-	-l(e)-	2r	.	.	.	.	.	.	.	2r	.	.	.	.	.	.	.	2r	.	.	.	.	.	.	.	2r	.	.	.	.	.	.	.
1a	-(lu)-	-(lu)-	-(lu)-	-(lu)-	-(lu)-	-(lu)-	-(lu)-	1a	-(lu)-	-(lu)-	-(lu)-	-(lu)-	-(lu)-	-(lu)-	-(lu)-	2.a\	-(lu)-	-(lu)-	-(lu)-	-(lu)-	-(lu)-	-(lu)-	-(lu)-	2.cc\	-(lu)-	-(lu)-	-(lu)-	-(lu)-	-(lu)-	-(lu)-	-(lu)-	1.r	.	.	.	.	.	.	.	0.r	.	.	.	.	.	.	.	1.r	.	.	.	.	.	.	.	0.r	.	.	.	.	.	.	.
.	.	.	.	.	.	.	.	.	.	.	.	.	.	.	.	4b\	.	.	.	.	.	.	.	4dd\	.	.	.	.	.	.	.	.	.	.	.	.	.	.	.	.	.	.	.	.	.	.	.	.	.	.	.	.	.	.	.	.	.	.	.	.	.	.	.
2e,<\	-(j)a	-(j)a	-(j)a	-(j)a	-(j)a	-(j)a	-(j)a	2g\	-(j)a	-(j)a	-(j)a	-(j)a	-(j)a	-(j)a	-(j)a	2cc\	-(j)a	-(j)a	-(j)a	-(j)a	-(j)a	-(j)a	-(j)a	2ee\	-(j)a	-(j)a	-(j)a	-(j)a	-(j)a	-(j)a	-(j)a	.	.	.	.	.	.	.	.	.	.	.	.	.	.	.	.	.	.	.	.	.	.	.	.	.	.	.	.	.	.	.	.
=21-	=21-	=21-	=21-	=21-	=21-	=21-	=21-	=21-	=21-	=21-	=21-	=21-	=21-	=21-	=21-	=21-	=21-	=21-	=21-	=21-	=21-	=21-	=21-	=21-	=21-	=21-	=21-	=21-	=21-	=21-	=21-	=21-	=21-	=21-	=21-	=21-	=21-	=21-	=21-	=21-	=21-	=21-	=21-	=21-	=21-	=21-	=21-	=21-	=21-	=21-	=21-	=21-	=21-	=21-	=21-	=21-	=21-	=21-	=21-	=21-	=21-	=21-	=21-
*	*	*	*	*	*	*	*	*	*	*ij	*ij	*ij	*ij	*ij	*ij	*	*	*ij	*ij	*ij	*ij	*ij	*ij	*	*	*	*	*	*	*	*	*	*	*	*	*	*	*	*	*	*	*	*	*	*	*	*	*	*	*	*	*	*	*	*	*	*	*	*	*	*	*	*
2d\	Al-	Al-	Al-	Al-	Al-	Al-	Al-	2f\	Al-	Al-	Al-	Al-	Al-	Al-	Al-	2a\	Al-	Al-	Al-	Al-	Al-	Al-	Al-	2ff\	Al-	Al-	Al-	Al-	Al-	Al-	Al-	1.r	.	.	.	.	.	.	.	.	.	.	.	.	.	.	.	1.r	.	.	.	.	.	.	.	.	.	.	.	.	.	.	.
2c\	-l(e)-	-l(e)-	-l(e)-	-l(e)-	-l(e)-	-l(e)-	-l(e)-	2g\	-l(e)-	-l(e)-	-l(e)-	-l(e)-	-l(e)-	-l(e)-	-l(e)-	2cc\	-l(e)-	-l(e)-	-l(e)-	-l(e)-	-l(e)-	-l(e)-	-l(e)-	2ee\	-l(e)-	-l(e)-	-l(e)-	-l(e)-	-l(e)-	-l(e)-	-l(e)-	.	.	.	.	.	.	.	.	.	.	.	.	.	.	.	.	.	.	.	.	.	.	.	.	.	.	.	.	.	.	.	.
2g\	-(lu)-	-(lu)-	-(lu)-	-(lu)-	-(lu)-	-(lu)-	-(lu)-	2g\	-(lu)-	-(lu)-	-(lu)-	-(lu)-	-(lu)-	-(lu)-	-(lu)-	2b\	-(lu)-	-(lu)-	-(lu)-	-(lu)-	-(lu)-	-(lu)-	-(lu)-	2dd\	-(lu)-	-(lu)-	-(lu)-	-(lu)-	-(lu)-	-(lu)-	-(lu)-	.	.	.	.	.	.	.	.	.	.	.	.	.	.	.	.	.	.	.	.	.	.	.	.	.	.	.	.	.	.	.	.
*M2/1	*	*	*	*	*	*	*	*M2/1	*	*	*	*	*	*	*	*M2/1	*	*	*	*	*	*	*	*M2/1	*	*	*	*	*	*	*	*M2/1	*	*	*	*	*	*	*	*M2/1	*	*	*	*	*	*	*	*M2/1	*	*	*	*	*	*	*	*M2/1	*	*	*	*	*	*	*
*met(C|)	*	*	*	*	*	*	*	*met(C|)	*	*	*	*	*	*	*	*met(C|)	*	*	*	*	*	*	*	*met(C|)	*	*	*	*	*	*	*	*met(C|)	*	*	*	*	*	*	*	*met(C|)	*	*	*	*	*	*	*	*met(C|)	*	*	*	*	*	*	*	*met(C|)	*	*	*	*	*	*	*
2c,<\	-(j)a	-(j)a	-(j)a	-(j)a	-(j)a	-(j)a	-(j)a	1g	-(j)a	-(j)a	-(j)a	-(j)a	-(j)a	-(j)a	-(j)a	2cc\	-(j)a	-(j)a	-(j)a	-(j)a	-(j)a	-(j)a	-(j)a	2ee\	-(j)a	-(j)a	-(j)a	-(j)a	-(j)a	-(j)a	-(j)a	4c/	Al-	Al-	Al-	Al-	Al-	Al-	Al-	1.g	Al-	Al-	Al-	Al-	Al-	Al-	Al-	2cc\	Al-	Al-	Al-	Al-	Al-	Al-	Al-	2.ee\	Al-	Al-	Al-	Al-	Al-	Al-	Al-
.	.	.	.	.	.	.	.	.	.	.	.	.	.	.	.	.	.	.	.	.	.	.	.	.	.	.	.	.	.	.	.	4d\	.	.	.	.	.	.	.	.	.	.	.	.	.	.	.	.	.	.	.	.	.	.	.	.	.	.	.	.	.	.	.
*	*	*	*	*	*	*	*	*	*	*	*	*	*	*	*	*	*	*Xij	*Xij	*Xij	*Xij	*Xij	*Xij	*	*	*	*	*	*	*	*	*	*	*	*	*	*	*	*	*	*	*	*	*	*	*	*	*	*	*	*	*	*	*	*	*	*	*	*	*	*	*	*
2c\	Al-	Al-	Al-	Al-	Al-	Al-	Al-	.	.	.	.	.	.	.	.	2cc\	Al-	Al-	Al-	Al-	Al-	Al-	Al-	2ee\	Al-	Al-	Al-	Al-	Al-	Al-	Al-	4e\	.	.	.	.	.	.	.	.	.	.	.	.	.	.	.	1cc\	-l(e)-	-l(e)-	-l(e)-	-l(e)-	-l(e)-	-l(e)-	-l(e)-	.	.	.	.	.	.	.	.
.	.	.	.	.	.	.	.	.	.	.	.	.	.	.	.	.	.	.	.	.	.	.	.	.	.	.	.	.	.	.	.	4f\	.	.	.	.	.	.	.	.	.	.	.	.	.	.	.	.	.	.	.	.	.	.	.	4ff\	.	.	.	.	.	.	.
*	*	*	*	*	*	*	*	*	*	*Xij	*Xij	*Xij	*Xij	*Xij	*Xij	*	*	*	*	*	*	*	*	*	*	*	*	*	*	*	*	*	*	*	*	*	*	*	*	*	*	*	*	*	*	*	*	*	*	*	*	*	*	*	*	*	*	*	*	*	*	*	*
=23-	=23-	=23-	=23-	=23-	=23-	=23-	=23-	=23-	=23-	=23-	=23-	=23-	=23-	=23-	=23-	=23-	=23-	=23-	=23-	=23-	=23-	=23-	=23-	=23-	=23-	=23-	=23-	=23-	=23-	=23-	=23-	=23-	=23-	=23-	=23-	=23-	=23-	=23-	=23-	=23-	=23-	=23-	=23-	=23-	=23-	=23-	=23-	=23-	=23-	=23-	=23-	=23-	=23-	=23-	=23-	=23-	=23-	=23-	=23-	=23-	=23-	=23-	=23-
1.G	-l(e)-	-l(e)-	-l(e)-	-l(e)-	-l(e)-	-l(e)-	-l(e)-	2g\	Al-	Al-	Al-	Al-	Al-	Al-	Al-	1.b	-l(e)-	-l(e)-	-l(e)-	-l(e)-	-l(e)-	-l(e)-	-l(e)-	1.dd	-l(e)-	-l(e)-	-l(e)-	-l(e)-	-l(e)-	-l(e)-	-l(e)-	1.g	-l(e)-	-l(e)-	-l(e)-	-l(e)-	-l(e)-	-l(e)-	-l(e)-	.	.	.	.	.	.	.	.	.	.	.	.	.	.	.	.	1.gg	-l(e)-	-l(e)-	-l(e)-	-l(e)-	-l(e)-	-l(e)-	-l(e)-
.	.	.	.	.	.	.	.	1d/	-l(e)-	-l(e)-	-l(e)-	-l(e)-	-l(e)-	-l(e)-	-l(e)-	.	.	.	.	.	.	.	.	.	.	.	.	.	.	.	.	.	.	.	.	.	.	.	.	2g\	-l(e)-	-l(e)-	-l(e)-	-l(e)-	-l(e)-	-l(e)-	-l(e)-	4b\	.	.	.	.	.	.	.	.	.	.	.	.	.	.	.
.	.	.	.	.	.	.	.	.	.	.	.	.	.	.	.	.	.	.	.	.	.	.	.	.	.	.	.	.	.	.	.	.	.	.	.	.	.	.	.	.	.	.	.	.	.	.	.	4a\	.	.	.	.	.	.	.	.	.	.	.	.	.	.	.
.	.	.	.	.	.	.	.	.	.	.	.	.	.	.	.	.	.	.	.	.	.	.	.	.	.	.	.	.	.	.	.	.	.	.	.	.	.	.	.	1g	-(lu)-	-(lu)-	-(lu)-	-(lu)-	-(lu)-	-(lu)-	-(lu)-	2.b\	-(lu)-	-(lu)-	-(lu)-	-(lu)-	-(lu)-	-(lu)-	-(lu)-	.	.	.	.	.	.	.	.
2G/	-(lu)-	-(lu)-	-(lu)-	-(lu)-	-(lu)-	-(lu)-	-(lu)-	2g\	-(lu)-	-(lu)-	-(lu)-	-(lu)-	-(lu)-	-(lu)-	-(lu)-	2g/	-(lu)-	-(lu)-	-(lu)-	-(lu)-	-(lu)-	-(lu)-	-(lu)-	2dd\	-(lu)-	-(lu)-	-(lu)-	-(lu)-	-(lu)-	-(lu)-	-(lu)-	2g\	-(lu)-	-(lu)-	-(lu)-	-(lu)-	-(lu)-	-(lu)-	-(lu)-	.	.	.	.	.	.	.	.	.	.	.	.	.	.	.	.	2dd\	-(lu)-	-(lu)-	-(lu)-	-(lu)-	-(lu)-	-(lu)-	-(lu)-
.	.	.	.	.	.	.	.	.	.	.	.	.	.	.	.	.	.	.	.	.	.	.	.	.	.	.	.	.	.	.	.	.	.	.	.	.	.	.	.	.	.	.	.	.	.	.	.	4b\	.	.	.	.	.	.	.	.	.	.	.	.	.	.	.
=25-	=25-	=25-	=25-	=25-	=25-	=25-	=25-	=25-	=25-	=25-	=25-	=25-	=25-	=25-	=25-	=25-	=25-	=25-	=25-	=25-	=25-	=25-	=25-	=25-	=25-	=25-	=25-	=25-	=25-	=25-	=25-	=25-	=25-	=25-	=25-	=25-	=25-	=25-	=25-	=25-	=25-	=25-	=25-	=25-	=25-	=25-	=25-	=25-	=25-	=25-	=25-	=25-	=25-	=25-	=25-	=25-	=25-	=25-	=25-	=25-	=25-	=25-	=25-
0cl;;	-(j)a	-(j)a	-(j)a	-(j)a	-(j)a	-(j)a	-(j)a	0gl;;	-(j)a	-(j)a	-(j)a	-(j)a	-(j)a	-(j)a	-(j)a	0gl;;	-(j)a	-(j)a	-(j)a	-(j)a	-(j)a	-(j)a	-(j)a	0ccl;;	-(j)a	-(j)a	-(j)a	-(j)a	-(j)a	-(j)a	-(j)a	0gl;;	-(j)a	-(j)a	-(j)a	-(j)a	-(j)a	-(j)a	-(j)a	0gl;;	-(j)a	-(j)a	-(j)a	-(j)a	-(j)a	-(j)a	-(j)a	0ccl;;	-(j)a	-(j)a	-(j)a	-(j)a	-(j)a	-(j)a	-(j)a	0eel;>	-(j)a.	-(j)a.	-(j)a.	-(j)a.	-(j)a.	-(j)a.	-(j)a.
==	==	==	==	==	==	==	==	==	==	==	==	==	==	==	==	==	==	==	==	==	==	==	==	==	==	==	==	==	==	==	==	==	==	==	==	==	==	==	==	==	==	==	==	==	==	==	==	==	==	==	==	==	==	==	==	==	==	==	==	==	==	==	==
*-	*-	*-	*-	*-	*-	*-	*-	*-	*-	*-	*-	*-	*-	*-	*-	*-	*-	*-	*-	*-	*-	*-	*-	*-	*-	*-	*-	*-	*-	*-	*-	*-	*-	*-	*-	*-	*-	*-	*-	*-	*-	*-	*-	*-	*-	*-	*-	*-	*-	*-	*-	*-	*-	*-	*-	*-	*-	*-	*-	*-	*-	*-	*-
!!!system-decoration: [(s1,s2,s3,s4)][(s5,s6,s7,s8)]
!!!RDF**kern: > = above
!!!RDF**kern: < = below
!!!RDF**kern: | = vertical stroke
!!!RDF**kern: N = linked
!!!RDF**kern: i = editorial accidental
!!!RDF**kern: l = terminal long
!!!ENC: Andrzej Gręziak
!!!END: 2021-10-29
!!!EED: Wojciech Jakubiak-Danek
!!!EEV: 2021-11-03
